!!!!SEGMENT: pl-wumfc--n68232--004_moniuszko-stanislaw--paria-wyciag-fortepianowy-prolog-scena-iii-recitativo-i-kawatina.krn
!!!cenid: 18xx:4134
!!!COM: Moniuszko, Stanisław
!!!COM-rismID: pe30008351
!!!CDT: 1819/05/05-1872/06/04
!!!CNT: Polish
!!!GTL: Paria – wyciąg fortepianowy
!!!OTL: Prolog. Scena III. Recitativo i Kawatina
!!!OMV: 004
!!!PDT:
!!!AGN:
!!!SMS-siglum: PL-Wumfc
!!!SMS-shelfmark: N68232
!!!SMS-variant:
!!!SMS-altvar:
!!!SMS-shelfwork: 001-004 G
!!!NIFC-rismSourceID: 1001171381
!!!NIFC-rismChildID: 1001171381
!!!NIFC-islandoraID: pl-wumfc:7210
!!!URL-pdf-islandora: https://repozytorium.nifc.pl/islandora/object/pl-wumfc%3A7210/datastream/PDF/view
!!!URL-scan: https://polish.musicsources.pl/pl/lokalizacje/galeria/druki-muzyczne/12634/1 @EN{Scan on Polish Music Sources Website} @PL{Skany w portalu Dziedzictwo Muzyki Polskiej w otwartym dostępie}
!!!IIIF:
!!!ONB-nifc: UWAGA: str. 12-15. Uwaga: proszę w pliku umieszczać obsadę, która występuje tylko w danej części.
!!!AIN: 3 empty
!!!key:
**kern	**dynam	**kern	**dynam	**kern	**text	**text	**dynam
*part3	*part3	*part2	*part2	*part1	*part1	*part1	*part1
*staff3	*	*staff2	*	*staff1	*staff1	*staff1	*
*Iempty	*	*Iempty	*	*Iempty	*	*	*
*	*	*	*	*I"Idamor. (Sam) Idamor. (Solo)	*	*	*
*	*	*I'P-no	*	*I'T.	*	*	*
*clefF4	*	*clefG2	*	*clefGv2	*	*	*
*k[]	*	*k[]	*	*k[]	*	*	*
*B-:	*	*B-:	*	*B-:	*	*	*
*M4/4	*	*M4/4	*	*M4/4	*	*	*
*met(c)	*	*met(c)	*	*met(c)	*	*	*
=1	=1	=1	=1	=1	=1	=1	=1
!	!	!	!	!LO:TX:a:t=Klucz bez przenośnika oktawowego	!	!	!
2CC;\ 2GG	.	2E;/ 2c	.	4r	.	.	.
.	.	.	.	[2c\	Pa-	Pa-	.
2r	.	2r	.	.	.	.	.
.	.	.	.	8c\]	.	.	.
.	.	.	.	8B\	-rj-	-ri-	.
=2	=2	=2	=2	=2	=2	=2	=2
1r	.	1r	.	4c\	-a!	-a!	.
.	.	.	.	4r	.	.	.
.	.	.	.	4c\	to	Ei	.
.	.	.	.	8.d\	jesz-	pur	.
.	.	.	.	16e\	-cze	prov-	.
=3	=3	=3	=3	=3	=3	=3	=3
1r	.	1r	.	4e\	je-	-vien	.
.	.	.	.	8c\	-den	dal-	.
.	.	.	.	8c\	z tej	-la	.
.	.	.	.	4c\	ka-	stir-	.
.	.	.	.	8B\	-sty	-pe	.
.	.	.	.	8c\	wzgar-	re-	.
=4	=4	=4	=4	=4	=4	=4	=4
4r	.	4r	.	8d\	-dzo-	-jet-	.
.	.	.	.	8A/	-ny	-ta,	.
4FF/ 4F	.	4A/ 4d 4a	p	4r	.	.	.
2r	.	2r	.	8r	.	.	.
.	.	.	.	8A/	Co	a	.
.	.	.	.	8d\	w łzach	cui	.
.	.	.	.	8e\	się	re-	.
=5	=5	=5	=5	=5	=5	=5	=5
1r	.	1r	.	4.f\	ro-	-tag-	.
.	.	.	.	8d\	-dzi	-gio e	.
.	.	.	.	4d\	a	pian-	.
.	.	.	.	8.B\	w nę-	-to e	.
.	.	.	.	16A/	-dzy	di-	.
=6	=6	=6	=6	=6	=6	=6	=6
4r	.	4r	.	4A/	to-	-sprez-	.
4BB/ 4E	.	4d/ 4g#X	.	8G#X/	-nie	-zo,	.
.	.	.	.	8r	.	.	.
2r	.	2r	.	4B\	Ob-	Che	.
.	.	.	.	8A/	-cy	des-	.
.	.	.	.	8G#/	na	-ta or-	.
=7	=7	=7	=7	=7	=7	=7	=7
1r	.	1r	.	4d\	wła-	-ror,	.
.	.	.	.	8c\	-snej	fu	.
.	.	.	.	8B\	kra-	da og-	.
.	.	.	.	4f\	-i-	-nun	.
.	.	.	.	8e\	-ny	ma-	.
.	.	.	.	8d\	swej	-le-	.
=8	=8	=8	=8	=8	=8	=8	=8
4r	.	4r	.	8d\	ło-	-det-	.
.	.	.	.	8c#X\	-nie,	-ta,	.
4AA/ 4E	.	4c#X/ 4a	p	8r	.	.	.
.	.	.	.	8c#\	Choć	che	.
2r	.	2r	.	8c#\	u-	nel-	.
.	.	.	.	8d\	-mie	-la	.
.	.	.	.	8.e\	ko-	pat-	.
.	.	.	.	16c#\	-chać	-ria	.
=9	=9	=9	=9	=9	=9	=9	=9
1r	.	1r	.	4A/	ją,	sua	.
.	.	.	.	8r	.	.	.
.	.	.	.	8A/	choć	co-	.
.	.	.	.	8.B\	u-	-stret-	.
.	.	.	.	16c#X\	-mie	-ta e	.
.	.	.	.	8.d\	bro-	a ram-	.
.	.	.	.	16e\	-nić	-min-	.
=10	=10	=10	=10	=10	=10	=10	=10
8.r	.	8.r	.	4f\	ją.	-gar.	.
16DD/ 16D	.	16d/ 16f 16a 16dd	mf	.	.	.	.
8DD/ 8D	.	8d/ 8f 8a 8dd	.	8r	.	.	.
8r	.	8r	.	8d\	Przed-	L'e-	.
2r	.	2r	.	4d\	-wie-	-ter-	.
.	.	.	.	8A/	-czny	-no,	.
.	.	.	.	16r	.	.	.
.	.	.	.	16A/	gdy	cre-	.
=11	=11	=11	=11	=11	=11	=11	=11
2r	.	2r	.	4A/	two-	-an-	.
.	.	.	.	8.A/	-rzył	-do	.
.	.	.	.	16A/	ten	l'im-	.
[2F\ [2A	.	[2d#X/ [2a	pp	4c\	świat	-men-	.
.	.	.	.	8B\	nie	-so u-	.
.	.	.	.	8A/	zmie-	-ni-	.
=12	=12	=12	=12	=12	=12	=12	=12
4F\] 4A]	.	4d#/] 4a]	.	4A/	-rzo-	-ver-	.
8E\ 8B	.	8e/ 8g#X	.	8G#X/	-ny	-so,	.
8r	.	8r	.	8r	.	.	.
2r	.	2r	.	4G#/	Z cu-	sog-	.
.	.	.	.	8.A/	-dów	-gior-	.
.	.	.	.	16B\	i	-no	.
=13	=13	=13	=13	=13	=13	=13	=13
1r	.	1r	.	4B\	zgro-	d'o-	.
.	.	.	.	8c\	-zy,	-dii,	.
.	.	.	.	16r	.	.	.
.	.	.	.	16d\	ros-	di	.
.	.	.	.	4d\	-ko-	gio-	.
.	.	.	.	8.e\	-szy	-je,	.
.	.	.	.	16d\	i	di	.
=14	=14	=14	=14	=14	=14	=14	=14
2r	.	2r	.	8.f\	cier-	pe-	.
.	.	.	.	16e\	-pień	-ne e a-	.
.	.	.	.	4e\	świat,	-mor,	.
4r	.	4r	.	4r	.	.	.
8r	.	8r	.	8r	.	.	.
(32E/LLL	.	(32e/LLL	f	8e\	Zo-	la	.
32D/	.	32d/	.	.	.	.	.
32C/	.	32c/	.	.	.	.	.
32BB/JJJ)	.	32B/JJJ)	.	.	.	.	.
=15||	=15||	=15||	=15||	=15||	=15||	=15||	=15||
!	!	!	!	!LO:TX:a:t=a tempo moderato.	!	!	!
1AA	.	32A/LLL	fp	4.e\	-sta-	die'in	.
.	.	32c/ 32e	.	.	.	.	.
.	.	32A/	.	.	.	.	.
.	.	32c/ 32e	.	.	.	.	.
.	.	32A/	.	.	.	.	.
.	.	32c/ 32e	.	.	.	.	.
.	.	32A/	.	.	.	.	.
.	.	32c/ 32e	.	.	.	.	.
.	.	32A/	.	.	.	.	.
.	.	32c/ 32e	.	.	.	.	.
.	.	32A/	.	.	.	.	.
.	.	32c/ 32e	.	.	.	.	.
.	.	32A/	.	8c\	-wił	ba-	.
.	.	32c/ 32e	.	.	.	.	.
.	.	32A/	.	.	.	.	.
.	.	32c/JJJ 32e	.	.	.	.	.
.	.	32A/LLL	.	8A/	go	-lia	.
.	.	32c/ 32e	.	.	.	.	.
.	.	32A/	.	.	.	.	.
.	.	32c/ 32e	.	.	.	.	.
.	.	32A/	.	16r	.	.	.
.	.	32c/ 32e	.	.	.	.	.
.	.	32A/	.	16B\	bez	a un	.
.	.	32c/ 32e	.	.	.	.	.
.	.	32A/	.	8.c\	czci,	fa-	.
.	.	32c/ 32e	.	.	.	.	.
.	.	32A/	.	.	.	.	.
.	.	32c/ 32e	.	.	.	.	.
.	.	32A/	.	.	.	.	.
.	.	32c/ 32e	.	.	.	.	.
.	.	32A/	.	16d\	o-	-to av-	.
.	.	32c/JJJ 32e	.	.	.	.	.
=16	=16	=16	=16	=16	=16	=16	=16
8.r	.	32c/LLL	.	2e\	-bro-	-ver-	.
.	.	32e/ 32a	.	.	.	.	.
.	.	32c/	.	.	.	.	.
.	.	32e/ 32a	.	.	.	.	.
.	.	32c/	.	.	.	.	.
.	.	32e/ 32a	.	.	.	.	.
!LO:TX:b:t=marcato il basso	!	!	!	!	!	!	!
16GG#X/KL	.	32c/	f	.	.	.	.
.	.	32e/ 32a	.	.	.	.	.
8.AA/	.	32c/	.	.	.	.	.
.	.	32e/ 32a	.	.	.	.	.
.	.	32c/	.	.	.	.	.
.	.	32e/ 32a	.	.	.	.	.
.	.	32c/	.	.	.	.	.
.	.	32e/ 32a	.	.	.	.	.
16BB/Jk	.	32c/	.	.	.	.	.
.	.	32e/JJJ 32a	.	.	.	.	.
8.C/L	.	32c/LLL	.	8e\	-ny	-so.	.
.	.	32e/ 32a	.	.	.	.	.
.	.	32c/	.	.	.	.	.
.	.	32e/ 32a	.	.	.	.	.
.	.	32c/	.	8r	.	.	.
.	.	32e/ 32a	.	.	.	.	.
16D/K	.	32c/	.	.	.	.	.
.	.	32e/ 32a	.	.	.	.	.
8.E/	.	32c/	.	8r	.	.	.
.	.	32e/ 32a	.	.	.	.	.
.	.	32c/	.	.	.	.	.
.	.	32e/ 32a	.	.	.	.	.
.	.	32c/	.	8e\	W tu-	Pri-	.
.	.	32e/ 32a	.	.	.	.	.
16C/Jk	.	32c/	.	.	.	.	.
.	.	32e/JJJ 32a	.	.	.	.	.
=17	=17	=17	=17	=17	=17	=17	=17
1AA	.	32A/LLL	.	4.f\	-ła-	-vol-	.
.	.	32c/ 32f	.	.	.	.	.
.	.	32A/	.	.	.	.	.
.	.	32c/ 32f	.	.	.	.	.
.	.	32A/	.	.	.	.	.
.	.	32c/ 32f	.	.	.	.	.
.	.	32A/	.	.	.	.	.
.	.	32c/ 32f	.	.	.	.	.
.	.	32A/	.	.	.	.	.
.	.	32c/ 32f	.	.	.	.	.
.	.	32A/	.	.	.	.	.
.	.	32c/ 32f	.	.	.	.	.
.	.	32A/	.	16c\	-ctwie	-la	.
.	.	32c/ 32f	.	.	.	.	.
.	.	32A/	.	16c\	bez	di	.
.	.	32c/JJJ 32f	.	.	.	.	.
.	.	32A/LLL	.	4A/	pól	pa-	.
.	.	32c/ 32f	.	.	.	.	.
.	.	32A/	.	.	.	.	.
.	.	32c/ 32f	.	.	.	.	.
.	.	32A/	.	.	.	.	.
.	.	32c/ 32f	.	.	.	.	.
.	.	32A/	.	.	.	.	.
.	.	32c/ 32f	.	.	.	.	.
.	.	32A/	.	8.c\	i	-tria e	.
.	.	32c/ 32f	.	.	.	.	.
.	.	32A/	.	.	.	.	.
.	.	32c/ 32f	.	.	.	.	.
.	.	32A/	.	.	.	.	.
.	.	32c/ 32f	.	.	.	.	.
.	.	32A/	.	16A/	bez	d'al-	.
.	.	32c/JJJ 32f	.	.	.	.	.
=18	=18	=18	=18	=18	=18	=18	=18
8.r	.	32c/LLL 32f 32a	.	2f\	chat,	-tar.	.
.	.	32cc/	.	.	.	.	.
.	.	32c/ 32f 32a	.	.	.	.	.
.	.	32cc/	.	.	.	.	.
.	.	32c/ 32f 32a	.	.	.	.	.
.	.	32cc/	.	.	.	.	.
16GG#X/KL	.	32c/ 32f 32a	.	.	.	.	.
.	.	32cc/	.	.	.	.	.
8.AA/	.	32c/ 32f 32a	.	.	.	.	.
.	.	32cc/	.	.	.	.	.
.	.	32c/ 32f 32a	.	.	.	.	.
.	.	32cc/	.	.	.	.	.
.	.	32c/ 32f 32a	.	.	.	.	.
.	.	32cc/	.	.	.	.	.
16C/Jk	.	32c/ 32f 32a	.	.	.	.	.
.	.	32cc/JJJ	.	.	.	.	.
8.F\L	.	32c/LLL 32f 32a	.	4r	.	.	.
.	.	32cc/	.	.	.	.	.
.	.	32c/ 32f 32a	.	.	.	.	.
.	.	32cc/	.	.	.	.	.
.	.	32c/ 32f 32a	.	.	.	.	.
.	.	32cc/	.	.	.	.	.
16E\K	.	32c/ 32f 32a	.	.	.	.	.
.	.	32cc/	.	.	.	.	.
8.F\	.	32c/ 32f 32a	.	4f\	Od	Le in-	.
.	.	32cc/	.	.	.	.	.
.	.	32c/ 32f 32a	.	.	.	.	.
.	.	32cc/	.	.	.	.	.
.	.	32c/ 32f 32a	.	.	.	.	.
.	.	32cc/	.	.	.	.	.
16C\Jk	.	32c/ 32f 32a	.	.	.	.	.
.	.	32cc/JJJ	.	.	.	.	.
=19	=19	=19	=19	=19	=19	=19	=19
2AA/	.	32A/LLL 32c 32e-X	.	4.f#X\	ludz-	-flis-	.
.	.	32f#X/	.	.	.	.	.
.	.	32A/ 32c 32e-	.	.	.	.	.
.	.	32f#/	.	.	.	.	.
.	.	32A/ 32c 32e-	.	.	.	.	.
.	.	32f#/	.	.	.	.	.
.	.	32A/ 32c 32e-	.	.	.	.	.
.	.	32f#/	.	.	.	.	.
.	.	32A/ 32c	.	.	.	.	.
.	.	32f#/	.	.	.	.	.
.	.	32A/ 32c 32e-	.	.	.	.	.
.	.	32f#/	.	.	.	.	.
.	.	32A/ 32c 32e-	.	8e-X\	-kich	-se	.
.	.	32f#/	.	.	.	.	.
.	.	32A/ 32c 32e-	.	.	.	.	.
.	.	32f#/JJJ	.	.	.	.	.
2r	.	32A/LLL 32c 32e-	.	8.c\	praw	l'on-	.
.	.	32f#/	.	.	.	.	.
.	.	32A/ 32c 32e-	.	.	.	.	.
.	.	32f#/	.	.	.	.	.
.	.	32A/ 32c 32e-	.	.	.	.	.
.	.	32f#/	.	.	.	.	.
.	.	32A/ 32c 32e-	.	16B\	od-	-ta e il	.
.	.	32f#/	.	.	.	.	.
.	.	32A/ 32c 32e-	.	8c\	-trą-	di-	.
.	.	32f#/	.	.	.	.	.
.	.	32A/ 32c 32e-	.	.	.	.	.
.	.	32f#/	.	.	.	.	.
.	.	32A/ 32c 32e-	.	8d\	-cił	-so-	.
.	.	32f#/	.	.	.	.	.
.	.	32A/ 32c	.	.	.	.	.
.	.	32f#/JJJ	.	.	.	.	.
=20	=20	=20	=20	=20	=20	=20	=20
8.r	.	8.c/L 8.e-X 8.f#X	.	4e-X\	go...	-nor.	.
16GG#X/KL	.	16e-/Jk 16f# 16cc	.	.	.	.	.
8.AA/	.	8.e-/L 8.f# 8.cc	<	4r	.	.	.
16AA#X/Jk	.	16f#/Jk 16cc 16ee-X	.	.	.	.	.
16BB/LL	.	8.f#\L 8.cc 8.ee-	.	2r	.	.	.
16C/	.	.	.	.	.	.	.
16D/	.	.	.	.	.	.	.
16E-X/JJ	.	16cc\Jk 16ee- 16ff#X	.	.	.	.	.
16F\LL	.	8.cc\L 8.ee- 8.ff#	.	.	.	.	.
16G\	.	.	.	.	.	.	.
16A-X\	.	.	.	.	.	.	.
16An\JJ	.	16ee-\Jk 16ff# 16ccc	[[	.	.	.	.
=21	=21	=21	=21	=21	=21	=21	=21
!LO:TX:b:t=Fag.	!	!	!	!	!	!	!
(2B-X\	.	8ee-X\ 8gg 8bb-X	f	1r	.	.	.
.	.	8r	.	.	.	.	.
.	.	(4e-X/ 4g	.	.	.	.	.
4A-X\	.	4B-X/ 4f	.	.	.	.	.
4BB-X\) 4G	.	4e-/)	.	.	.	.	.
=22	=22	=22	=22	=22	=22	=22	=22
*^	*	*^	*	*	*	*	*
1F	2C-X\	.	(2e-X/	1A-X	.	[2.c-X^\	Pa-	Pa-	.
!LO:TX:b:t=V-IIi	!	!	!	!	!	!	!	!	!
.	2BB-X\	.	2d/	.	.	.	.	.	.
.	.	.	.	.	.	8c-\]	.	.	.
.	.	.	.	.	.	8B-X\	-rj-	-ri-	.
*v	*v	*	*	*	*	*	*	*	*
*	*	*v	*v	*	*	*	*	*
=23	=23	=23	=23	=23	=23	=23	=23
!	!	!	!	!LO:TX:a:t=Piu agitato.	!	!	!
[4EE-X/ [4BB-X [4E-X	.	[4G/) [4e-X	.	2B-X\	-ja!!!	-a!!	.
8EE-/] 8BB-] 8E-]	.	8G/] 8e-]	.	.	.	.	.
8r	.	8r	.	.	.	.	.
!	!	!LO:TX:b:t=Recit.	!	!	!	!	!
2r	.	2r	.	4r	.	.	.
!	!	!	!	!LO:TX:a:t=Recit.	!	!	!
.	.	.	.	8G/	Je-	Fi-	.
.	.	.	.	8A-X/	-mu	-no il	.
=24	=24	=24	=24	=24	=24	=24	=24
1r	.	1r	.	4B-X\	słoń-	sol	.
.	.	.	.	8B-\	-ce	gli e	.
.	.	.	.	8B-\	ża-	ge-	.
.	.	.	.	8c\	-łu-	-lo-	.
.	.	.	.	8B-\	-je	-so	.
.	.	.	.	8c\	swych	de'	.
.	.	.	.	8d-X\	pro-	suoi	.
=25	=25	=25	=25	=25	=25	=25	=25
2r	.	2r	.	4d-X\	-mie-	rag-	.
.	.	.	.	4c\	-ni	-gi.	.
4EEn/ 4En	.	4G/ 4c 4g	mf	4r	.	.	.
4r	.	4r	.	8.c\	Kwiat	Viz-	.
.	.	.	.	16d-\	u-	-zo e il	.
=26	=26	=26	=26	=26	=26	=26	=26
1r	.	1r	.	4B-X\	-sy-	fio-	.
.	.	.	.	8G/	-cha	-re	.
.	.	.	.	16r	.	.	.
.	.	.	.	16G/	za-	ch il	.
.	.	.	.	8.c\	-tru-	suo	.
.	.	.	.	16B-\	-ty	a li-	.
.	.	.	.	8.A-X/	je-	-tar	.
.	.	.	.	16G/	-go	ac-	.
=27	=27	=27	=27	=27	=27	=27	=27
4r	.	4r	.	4B-X\	tchnie-	-col-	.
8.r	.	8.r	.	8A-X/	-niem,	-se.	.
.	.	.	.	8r	.	.	.
16FF/ 16F	.	16c/ 16f 16a-X	.	.	.	.	.
4FF^/ 4F	.	4c/ 4f 4a-	.	4A-^/	On	L'uom	.
4r	.	4r	.	8A-/	swem	ch'ei	.
.	.	.	.	8B-\	do-	toc-	.
=28	=28	=28	=28	=28	=28	=28	=28
1r	.	1r	.	4c\	-tknię-	-co	.
.	.	.	.	8.c\	-ciem	re-	.
.	.	.	.	16c\	czło-	-ca un	.
.	.	.	.	4.f\	-wie-	mar-	.
.	.	.	.	8e-X\	-ka	-chio	.
=29	=29	=29	=29	=29	=29	=29	=29
2r	.	2r	.	4e-X\	pla-	in fa-	.
.	.	.	.	4B-X\	-mi,	-me.	.
4GG/ 4G	.	4B-X^/ 4e-X 4b-X	.	8r	.	.	.
.	.	.	.	8B-\	Drga	La	.
4r	.	4r	.	8c\	zie-	ter-	.
.	.	.	.	8d-X\	-mia	-ra	.
=30	=30	=30	=30	=30	=30	=30	=30
1r	.	1r	.	4e-X\	gnie-	fre-	.
.	.	.	.	8B-X\	-wem	-me	.
.	.	.	.	8B-\	pod	che il	.
.	.	.	.	4d-X\	je-	pie	.
.	.	.	.	8c\	-go	suo	.
.	.	.	.	8B-\	sto-	cal-	.
=31	=31	=31	=31	=31	=31	=31	=31
4r	.	4r	.	4d-X\	-pa-	-pe-	.
8r	.	8r	.	8c\	-mi,	-sta.	.
8En\ 8G	.	8B-X/ 8c	f	8r	.	.	.
4F\ 4A-X	.	4B-/ 4c	.	4c\	Rze-	S'a-	.
4r	.	4r	.	8c\	-ka	-gi-	.
.	.	.	.	8c\	się	-tan	.
=32	=32	=32	=32	=32	=32	=32	=32
4r	.	4r	.	4c\	bu-	l'ac-	.
8r	.	8r	.	8c\	-rzy,	-que,	.
8F#X\ 8A	.	8c/ 8d#X	.	8r	.	.	.
4G\ 4B-X	.	4c/ 4e	.	4c\	stru-	tur-	.
4r	.	4r	.	8c\	-mień	-ba-	.
.	.	.	.	8c\	się	-si il	.
=33	=33	=33	=33	=33	=33	=33	=33
!	!	!LO:TX:b:t=a tempo accelerando e molto cresc.	!	!LO:TX:a:t=a tempo	!	!	!
4r	.	4r	<	4c\	pie-	fon-	.
4G#X\ 4B	.	4d/ 4f	pp	4c\	-ni,	-te,	.
!	!	!	!	!LO:TX:a:t=accelerando e molto cresc.	!	!	!
4A\ 4c	.	4d#X/ 4f#X	.	8r	.	.	.
.	.	.	.	8c\	Gdy	al-	.
4B-X\ 4c	.	4e/ 4g 4cc	.	8c\	Pa-	-lor	.
.	.	.	.	8c\	-rja	che il	.
=34	=34	=34	=34	=34	=34	=34	=34
!	!	!	!	!	!	!	!LO:DY:a
8.Bn\L	.	4f/ 4a-X 4dd-X	.	4d-X\	bie-	Pa-	<
16B\Jk	.	.	.	.	.	.	.
8.c\L	.	4f#X/ 4an 4ddn	.	4dn\	-gnie	-ria	.
16c\Jk	.	.	.	.	.	.	.
8.c#X\L	.	4g\ 4b-X 4ee-X	.	4e-X\	doń	si	.
16c#\Jk	.	.	.	.	.	.	.
8.d\L	.	4g#X\ 4bn 4een	[	4en\	spra-	dis-	[[
16d\Jk	.	.	.	.	.	.	.
=35	=35	=35	=35	=35	=35	=35	=35
12E-X\L 12F 12A 12c	.	8f'\ 8a 8cc 8ff	.	2f\	-gnio-	-se-	.
12E-\ 12F 12A 12c	.	.	.	.	.	.	.
!	!	!LO:N:vis=16	!	!	!	!	!
.	.	48ccc\LLL	.	.	.	.	.
!	!	!LO:N:vis=16	!	!	!	!	!
.	.	48bb-X\	.	.	.	.	.
!	!	!LO:N:vis=16	!	!	!	!	!
12E-\J 12F 12A 12c	.	48aa\J	.	.	.	.	.
.	.	16bb-\JJ	.	.	.	.	.
12E-\L 12F 12A 12c	.	12ccc'\L	.	.	.	.	.
12E-\ 12F 12A 12c	.	12aa'\	.	.	.	.	.
12E-\J 12F 12A 12c	.	12ff'\J	.	.	.	.	.
12E-\L 12F 12A 12c	.	8cc'\	.	8F/	-ny,	-ta.	.
12E-\ 12F 12A 12c	.	.	.	.	.	.	.
!	!	!LO:N:vis=16	!	!	!	!	!
.	.	48dd\LLL	.	8r	.	.	.
!	!	!LO:N:vis=16	!	!	!	!	!
.	.	48cc\	.	.	.	.	.
!	!	!LO:N:vis=16	!	!	!	!	!
12E-\J 12F 12A 12c	.	48a\J	.	.	.	.	.
.	.	16cc\JJ	.	.	.	.	.
12E-\L 12F 12A 12c	.	12ff'\L	.	4r	.	.	.
12E-\ 12F 12A 12c	.	12cc'\	.	.	.	.	.
12E-\J 12F 12A 12c	.	12a'\J	.	.	.	.	.
=36	=36	=36	=36	=36	=36	=36	=36
!	!	!	!	!LO:TX:a:t=Lento.	!	!	!
1EE-X 1E-X	.	32A/LLL 32c	f	8r	.	.	.
.	.	32f/	pp	.	.	.	.
.	.	32A/ 32c	.	.	.	.	.
.	.	32f/	.	.	.	.	.
.	.	32A/ 32c	.	4c;\	Tyl-	So-	.
.	.	32f/	.	.	.	.	.
.	.	32A/ 32c	.	.	.	.	.
.	.	32f/	.	.	.	.	.
.	.	32A/ 32c	.	.	.	.	.
.	.	32f/	.	.	.	.	.
.	.	32A/ 32c	.	.	.	.	.
.	.	32f/	.	.	.	.	.
.	.	32A/ 32c	.	8B-X\	-ko	-lo il	.
.	.	32f/	.	.	.	.	.
.	.	32A/ 32c	.	.	.	.	.
.	.	32f/JJJ	.	.	.	.	.
.	.	32A/LLL 32c	.	4A^/	ty-	ti-	.
.	.	32f/	.	.	.	.	.
.	.	32A/ 32c	.	.	.	.	.
.	.	32f/	.	.	.	.	.
.	.	32A/ 32c	.	.	.	.	.
.	.	32f/	.	.	.	.	.
.	.	32A/ 32c	.	.	.	.	.
.	.	32f/	.	.	.	.	.
.	.	32A/ 32c	.	8.G/	-grys	-gre af-	.
.	.	32f/	.	.	.	.	.
.	.	32A/ 32c	.	.	.	.	.
.	.	32f/	.	.	.	.	.
.	.	32A/ 32c	.	.	.	.	.
.	.	32f/	.	.	.	.	.
.	.	32A/ 32c	.	16A/	zgło-	-fa-	.
.	.	32f/JJJ	.	.	.	.	.
=37	=37	=37	=37	=37	=37	=37	=37
!	!	!	!	!LO:TX:a:t=Allegro.	!	!	!
12DD/ 12D	.	8A/ 8c 8f#X	.	8F#X/	-dnia-	-ma-	.
12D\L 12F#X 12A 12c	.	.	.	.	.	.	.
!	!	!LO:N:vis=16	!	!	!	!	!
.	.	48ccc\LLL	.	8F#/	-ły.	-to,	.
!	!	!LO:N:vis=16	!	!	!	!	!
.	.	48bb-X\	.	.	.	.	.
!	!	!LO:N:vis=16	!	!	!	!	!
12D\J 12F# 12A 12c	.	48aa\J	.	.	.	.	.
.	.	16bb-\JJ	.	.	.	.	.
12D\L 12F# 12A 12c	.	12ccc'\L	.	4r	.	.	.
12D\ 12F# 12A 12c	.	12aa'\	.	.	.	.	.
12D\J 12F# 12A 12c	.	12ff#X'\J	.	.	.	.	.
12D\L 12F# 12A 12c	.	8dd'\	.	2r	.	.	.
12D\ 12F# 12A 12c	.	.	.	.	.	.	.
!	!	!LO:N:vis=16	!	!	!	!	!
.	.	48cc\LLL	.	.	.	.	.
!	!	!LO:N:vis=16	!	!	!	!	!
.	.	48b-X\	.	.	.	.	.
!	!	!LO:N:vis=16	!	!	!	!	!
12D\J 12F# 12A 12c	.	48a\J	.	.	.	.	.
.	.	16b-\JJ	.	.	.	.	.
12D\L 12F# 12A 12c	.	12cc'/L	.	.	.	.	.
12D\ 12F# 12A 12c	.	12a'/	.	.	.	.	.
12D\J 12F# 12A 12c	.	12f#'/J	.	.	.	.	.
=38	=38	=38	=38	=38	=38	=38	=38
!	!	!	!	!LO:TX:a:t=Lento.	!	!	!
1FF#X 1F#X	.	32c/LLL 32d	f	8.r	.	.	.
.	.	32a/	pp	.	.	.	.
.	.	32c/ 32d	.	.	.	.	.
.	.	32a/	.	.	.	.	.
.	.	32c/ 32d	.	.	.	.	.
.	.	32a/	.	.	.	.	.
.	.	32c/ 32d	.	16A/	wy-	che	.
.	.	32a/	.	.	.	.	.
.	.	32c/ 32d	.	4.d\	-padł-	sca-	.
.	.	32a/	.	.	.	.	.
.	.	32c/ 32d	.	.	.	.	.
.	.	32a/	.	.	.	.	.
.	.	32c/ 32d	.	.	.	.	.
.	.	32a/	.	.	.	.	.
.	.	32c/ 32d	.	.	.	.	.
.	.	32a/JJJ	.	.	.	.	.
.	.	32c/LLL 32d	.	.	.	.	.
.	.	32a/	.	.	.	.	.
.	.	32c/ 32d	.	.	.	.	.
.	.	32a/	.	.	.	.	.
.	.	32c/ 32d	.	8c\	-szy	-glia-	.
.	.	32a/	.	.	.	.	.
.	.	32c/ 32d	.	.	.	.	.
.	.	32a/	.	.	.	.	.
.	.	32c/ 32d	.	8B-X\	z mię-	-si a	.
.	.	32a/	.	.	.	.	.
.	.	32c/ 32d	.	.	.	.	.
.	.	32a/	.	.	.	.	.
.	.	32c/ 32d	.	8A/	-dzy	pre-	.
.	.	32a/	.	.	.	.	.
.	.	32c/ 32d	.	.	.	.	.
.	.	32a/JJJ	.	.	.	.	.
=39	=39	=39	=39	=39	=39	=39	=39
!	!	!	!	!LO:TX:a:t=Allegro.	!	!	!
12DD/ 12D	.	8B-X/ 8d 8g 8b-X	ff	4B-X\	drzew,	-dar,	.
12D\L 12G 12B-X 12d	.	.	.	.	.	.	.
!	!	!LO:N:vis=16	!	!	!	!	!
.	.	48bb-X\LLL	.	.	.	.	.
!	!	!LO:N:vis=16	!	!	!	!	!
.	.	48aa\	.	.	.	.	.
!	!	!LO:N:vis=16	!	!	!	!	!
12D\J 12G 12B- 12d	.	48gg\J	.	.	.	.	.
.	.	16aa\JJ	.	.	.	.	.
12D\L 12G 12B- 12d	.	12ddd'\L	.	4r	.	.	.
12D\ 12G 12B- 12d	.	12bb-'\	.	.	.	.	.
12D\J 12G 12B- 12d	.	12gg'\J	.	.	.	.	.
12D\L 12G 12B- 12d	.	8dd\	.	2r	.	.	.
12D\ 12G 12B- 12d	.	.	.	.	.	.	.
!	!	!LO:N:vis=16	!	!	!	!	!
.	.	48dd\LLL	.	.	.	.	.
!	!	!LO:N:vis=16	!	!	!	!	!
.	.	48cc\	.	.	.	.	.
!	!	!LO:N:vis=16	!	!	!	!	!
12D\J 12G 12B- 12d	.	48b-\J	.	.	.	.	.
.	.	16cc\JJ	.	.	.	.	.
12D\L 12G 12B- 12d	.	12dd'\L	.	.	.	.	.
12D\ 12G 12B- 12d	.	12b-'\	.	.	.	.	.
12D\J 12G 12B- 12d	.	12g'\J	.	.	.	.	.
=40	=40	=40	=40	=40	=40	=40	=40
!	!	!	!	!LO:TX:a:t=Lento.	!	!	!
1DD 1D	.	32G/LLL 32B-X	f	8r	.	.	.
.	.	32d/	pp	.	.	.	.
.	.	32G/ 32B-	.	.	.	.	.
.	.	32d/	.	.	.	.	.
.	.	32G/ 32B-	.	8d\	Nie	in-	.
.	.	32d/	.	.	.	.	.
.	.	32G/ 32B-	.	.	.	.	.
.	.	32d/	.	.	.	.	.
.	.	32G/ 32B-	.	8c\	ba-	-con-	.
.	.	32d/	.	.	.	.	.
.	.	32G/ 32B-	.	.	.	.	.
.	.	32d/	.	.	.	.	.
.	.	32G/ 32B-	.	8B-X\	-cząc	-scio	.
.	.	32d/	.	.	.	.	.
.	.	32G/ 32B-	.	.	.	.	.
.	.	32d/JJJ	.	.	.	.	.
.	.	32G/LLL 32B-	.	8A/	czy	del	.
.	.	32d/	.	.	.	.	.
.	.	32G/ 32B-	.	.	.	.	.
.	.	32d/	.	.	.	.	.
.	.	32G/ 32B-	.	8G/	on	fa-	.
.	.	32d/	.	.	.	.	.
.	.	32G/ 32B-	.	.	.	.	.
.	.	32d/	.	.	.	.	.
.	.	32G/ 32B-	.	8B-\	z nor,	-tal	.
.	.	32d/	.	.	.	.	.
.	.	32G/ 32B-	.	.	.	.	.
.	.	32d/	.	.	.	.	.
.	.	32G/ 32B-	.	16r	.	.	.
.	.	32d/	.	.	.	.	.
.	.	32G/ 32B-	.	16d\	czy	ri-	.
.	.	32d/JJJ	.	.	.	.	.
=41	=41	=41	=41	=41	=41	=41	=41
!	!	!	!	!LO:TX:a:t=Allegro.	!	!	!
12r	.	8G/ 8B-X 8c#X	.	4c#X\	z miast	-gor,	.
12E-X\L 12G 12B-X 12e-X	.	.	.	.	.	.	.
!	!	!LO:N:vis=16	!	!	!	!	!
.	.	48bb-X\LLL	.	.	.	.	.
!	!	!LO:N:vis=16	!	!	!	!	!
.	.	48aa\	.	.	.	.	.
!	!	!LO:N:vis=16	!	!	!	!	!
12E-\J 12G 12B- 12e-	.	48gg\J	.	.	.	.	.
.	.	16aa\JJ	.	.	.	.	.
12E-\L 12G 12B- 12e-	.	12bb-'\L	.	4r	.	.	.
12E-\ 12G 12B- 12e-	.	12gg'\	.	.	.	.	.
12E-\J 12G 12B- 12e-	.	12ddd'\J	.	.	.	.	.
12E-\L 12G 12B- 12e-	.	8ccc#X'\	.	2r	.	.	.
12E-\ 12G 12B- 12e-	.	.	.	.	.	.	.
!	!	!LO:N:vis=16	!	!	!	!	!
.	.	48b-X/LLL	.	.	.	.	.
!	!	!LO:N:vis=16	!	!	!	!	!
.	.	48a/	.	.	.	.	.
!	!	!LO:N:vis=16	!	!	!	!	!
12E-\J 12G 12B- 12e-	.	48g/J	.	.	.	.	.
.	.	16a/JJ	.	.	.	.	.
12E-\L 12G 12B- 12e-	.	12b-'\L	.	.	.	.	.
12E-\ 12G 12B- 12e-	.	12g'\	.	.	.	.	.
12E-\J 12G 12B- 12e-	.	12gg'\J	.	.	.	.	.
=42	=42	=42	=42	=42	=42	=42	=42
8En\ 8G 8cn	.	8g\ 8b-X 8gg	???	8r	.	.	.
!	!	!	!	!LO:TX:a:t=ad lib.	!	!	!
8r	.	8r	.	16G/	Gdy	sbra-	.
.	.	.	.	16A/	za-	-na il	.
4r	.	4r	.	8B-X\	-to-	cor-	.
.	.	.	.	16A/	-pi	-po	.
.	.	.	.	16B-/	w nim	del	.
2r	.	2r	.	4d\	szpo-	Pa-	.
.	.	.	.	8c\	-ny,	-ria,	.
.	.	.	.	8r	.	.	.
=43	=43	=43	=43	=43	=43	=43	=43
!	!	!	!	!LO:TX:a:t=Piu lento.	!	!	!
2FF/ 2F	.	2c^/ 2f 2a	.	4A/	Wi-	ed	.
.	.	.	.	8.G/	-dzi	il	.
.	.	.	.	16F/	że	suo	.
2AAA/ 2AA	.	2c^/ 2f 2cc	.	4c\	Pa-	san-	.
.	.	.	.	8c\	-rja	-gue,	.
.	.	.	.	16r	.	.	.
.	.	.	.	16c\	jak	al	.
=44	=44	=44	=44	=44	=44	=44	=44
2BBB-X/ 2BB-X	.	2d-X^/ 2f 2dd-X	.	8.d-X\	każ-	l'al-	.
.	.	.	.	16d-\	-dy	-tre	.
.	.	.	.	8c\	z in-	gen-	.
.	.	.	.	8d-\	-nych	-ti e-	.
2DD-X/ 2D-X	.	2d-^/ 2f 2a-X	.	2f\	kast	-gual,	.
=45	=45	=45	=45	=45	=45	=45	=45
*	*	*^	*	*	*	*	*
(2AAA-X/ 2AA-X	.	2c^/ 2e-X 2a-X	2ryy	.	8r	.	.	.
.	.	.	.	.	8A-X/	Ma	gli	.
.	.	.	.	.	8B-X\	w ży-	da	.
.	.	.	.	.	8c\	-łach	ri-	.
4BBB-X/ 4BB-X	.	(4B-X/ 4g	8.d-X\L	.	8.e-X\	swych	-stor,	.
.	.	.	16f\Jk	.	16d-X\	czło-	lo	.
4CC/) 4C	.	4B-X/) 4en	4ryy	.	12B-/L	-wie-	sa-	.
.	.	.	.	.	12G/J	.	.	.
.	.	.	.	.	12c\	-czą	-zia al	.
*	*	*v	*v	*	*	*	*	*
=46||	=46||	=46||	=46||	=46||	=46||	=46||	=46||
*k[b-e-]	*	*k[b-e-]	*	*k[b-e-]	*	*	*
*M12/8	*	*M12/8	*	*M12/8	*	*	*
!	!	!	!	!LO:TX:a:t=Andante non troppo lento.	!	!	!
4FF/	.	8A/ 8f	.	4F/	krew!	par.	.
!	!	!LO:TX:a:t=Cl.	!	!	!	!	!
.	.	(8A/L	.	.	.	.	.
8r	.	8c/J	.	8r	.	.	.
4r	.	8e-/L	.	4r	.	.	.
.	.	8c/	.	.	.	.	.
8r	.	8g-X/J	.	8r	.	.	.
2.r	.	8f\L	.	2.r	.	.	.
.	.	8ee-\	.	.	.	.	.
.	.	8cc\J	.	.	.	.	.
.	.	8b-\L	.	.	.	.	.
.	.	8a\	.	.	.	.	.
.	.	8cc\J)	.	.	.	.	.
=47	=47	=47	=47	=47	=47	=47	=47
1.r	.	8f/L	.	1.r	.	.	.
.	.	8e-/	.	.	.	.	.
.	.	8g-X/J	.	.	.	.	.
.	.	8d-X^/L	.	.	.	.	.
.	.	8c/	.	.	.	.	.
.	.	8e-/J	.	.	.	.	.
.	.	8B-^/L	.	.	.	.	.
.	.	8A/	.	.	.	.	.
.	.	8f/J	.	.	.	.	.
.	.	8e-'/L	.	.	.	.	.
.	.	8c'/	.	.	.	.	.
.	.	8A'/J	.	.	.	.	.
=48	=48	=48	=48	=48	=48	=48	=48
[2.F\	.	1.r	.	2.r	.	.	.
4F\]	.	.	.	4.f\	w la-	Quan-	.
8r	.	.	.	.	.	.	.
4r	.	.	.	4e-\	-sach	-do	.
8r	.	.	.	8d\	O-	d'O-	.
=49	=49	=49	=49	=49	=49	=49	=49
2.BB-/	.	8r	.	4.c\	-ris-	-ris-	.
.	.	(8d/L	.	.	.	.	.
.	.	8f/J	.	.	.	.	.
.	.	8b-/L	.	4B-\	-sy	-sa	.
.	.	8d/	.	.	.	.	.
.	.	8f/J)	.	8r	.	.	.
2.BB-/	.	8r	.	4.d\	wśród	nel-	.
.	.	(8B-/L	.	.	.	.	.
.	.	8d/J	.	.	.	.	.
.	.	8f#X/L	.	4B-\	wiecz-	-le	.
.	.	8d/	.	.	.	.	.
.	.	8B-/J)	.	8A/	-nej	fo-	.
=50	=50	=50	=50	=50	=50	=50	=50
2.BB-/	.	8r	.	4.A/	wio-	-re-	.
.	.	(8G/L	.	.	.	.	.
.	.	8d/J	.	.	.	.	.
.	.	8g/L	.	4G/	-sny	-ste,	.
.	.	8d/	.	.	.	.	.
.	.	8B-/J)	.	8r	.	.	.
4.E-\	.	8r	.	8r	.	.	.
.	.	(8G/L	.	8r	.	.	.
.	.	8g/J	.	8G/	Wi-	vi-	.
4.D\	.	8f#X/L	.	4An/	-do-	-ve-	.
.	.	8G/	.	.	.	.	.
.	.	8fn/J)	.	8Bn\	-ki	-va i-	.
=51	=51	=51	=51	=51	=51	=51	=51
2.C/	.	(8e-/L	.	4.c\	do-	-gna-	.
.	.	8G/	.	.	.	.	.
.	.	8c/J	.	.	.	.	.
.	.	8e-/L	.	8G/	-lin	-ro	.
.	.	8c/	.	8r	.	.	.
.	.	8g/J)	.	8G/	i	fra i	.
2.C/	.	8r	.	[4.d\	gór	mon-	.
.	.	(8G/L	.	.	.	.	.
.	.	8Bn/J	.	.	.	.	.
.	.	8f/L	.	4d\]	.	.	.
.	.	8G/	.	.	.	.	.
.	.	8g/J)	.	8G/	i	-ti e i	.
=52	=52	=52	=52	=52	=52	=52	=52
2.C/	.	8r	.	[4.e-\	fal	fior	.
.	.	(8G/L	.	.	.	.	.
.	.	8c/J	.	.	.	.	.
.	.	8e-/L	.	4e-\]	.	.	.
.	.	8c/	.	.	.	.	.
.	.	8g/J)	.	8r	.	.	.
2.GG-X^/ 2.G-X	.	8r	.	4.e-^\	Ryk	Vo-	.
.	.	(8B-/L	.	.	.	.	.
.	.	8e-/J	.	.	.	.	.
.	.	8b-/L	.	8d\	lwów,	-ci	.
.	.	8B-/	.	8r	.	.	.
.	.	8e-/J)	.	8c\	śpiew	d'au-	.
=53	=53	=53	=53	=53	=53	=53	=53
!	!	!	!	!	!	!	!LO:DY:a
2.FF/ 2.F	<	8r	.	(4.B-\	pta-	-gel-	<
.	.	(8c/L	.	.	.	.	.
.	.	8f/J	.	.	.	.	.
.	.	8c/L 8a	.	8A\L	.	.	.
.	.	8f/	.	8c\)	.	.	.
.	.	8a/J) 8cc	.	8e-\J	-ków	-li,	.
2.AA/	[	(8e-^/L 8g 8cc	.	4.g\	smę-	ga-	[
.	.	8c/	.	.	.	.	.
.	.	8g/J)	.	.	.	.	.
.	.	(8f/L	.	[4f\	-tny,	-je op-	.
.	.	8c/	.	.	.	.	.
.	.	8e-/J)	.	16f\]	.	.	.
.	.	.	.	16c\	ra-	-pur	.
=54	=54	=54	=54	=54	=54	=54	=54
*^	*	*	*	*	*	*	*
1.F	(2.BB-\	.	8r	.	4.e-\	-do-	me-	.
.	.	.	8B-/L	.	.	.	.	.
.	.	.	8f/J	.	.	.	.	.
.	.	.	8b-/L	<	4d\	-sny,	-ste,	.
.	.	.	8d/	.	.	.	.	.
.	.	.	8f/J	.	8r	.	.	.
.	4.AA\	.	8dd/L	.	[4.d\	Wpier-	a	.
.	.	.	8f/	.	.	.	.	.
.	.	.	8d/J	.	.	.	.	.
.	4.GG#X\)	.	8f/L	.	8d\]	.	.	.
.	.	.	8d/	.	8c#X\	-siach	so-	.
.	.	.	8dd/J	[[	8d\	bu-	-gni	.
*v	*v	*	*	*	*	*	*	*
=55	=55	=55	=55	=55	=55	=55	=55
*	*	*^	*	*	*	*	*
2.AA/	.	8d^/L 8f 8a	2.ryy	.	4.f\	-dzi-	va-	.
.	.	8A/	.	.	.	.	.	.
.	.	8d/J	.	.	.	.	.	.
.	.	8a/L	.	.	8d\	-ły	-ghi	.
.	.	8f/	.	.	8r	.	.	.
.	.	8d/J	.	.	8d\	nie-	m'a-	.
2.FF/	.	8c/L 8e- 8a	4.ryy	pp	[4.f\	-zna-	-pri-	.
.	.	8c/	.	.	.	.	.	.
.	.	8f/J	.	.	.	.	.	.
.	.	8a/L	4.e-\	.	4f\]	.	.	.
.	.	8f/	.	.	.	.	.	.
.	.	8cc/J	.	.	8c\	-ny	-ro il	.
*	*	*v	*v	*	*	*	*	*
=56	=56	=56	=56	=56	=56	=56	=56
2.BB-\ 2.F	.	8d/ 8b-	.	4d\	żal...	cor.	.
.	.	(8d/L	<	.	.	.	.
.	.	8f/J	.	8r	.	.	.
.	.	8f/L	.	4r	.	.	.
.	.	8b-/	.	.	.	.	.
.	.	8dd/J)	.	8r	.	.	.
8r	.	(4.ff\	[	2.r	.	.	.
(8D\L	.	.	.	.	.	.	.
8F\J	.	.	.	.	.	.	.
8B-\L	.	[4ee-\	.	.	.	.	.
8d\	.	.	.	.	.	.	.
8F\J)	.	16ee-\LL]	.	.	.	.	.
.	.	16dd\JJ	.	.	.	.	.
=57	=57	=57	=57	=57	=57	=57	=57
*	*	*^	*	*	*	*	*
2.BB-/	.	4.cc/	8r	.	1.r	.	.	.
.	.	.	8d\L	.	.	.	.	.
.	.	.	8f\J	.	.	.	.	.
.	.	4b-/)	8g\L	.	.	.	.	.
.	.	.	8d\	.	.	.	.	.
.	.	8r	8f\J	.	.	.	.	.
!	!	!LO:TX:a:t=V-IIi e Fag.	!	!	!	!	!	!
8r	.	(4.f/	2.ryy	.	.	.	.	.
(8D\L	.	.	.	.	.	.	.	.
8F\J	.	.	.	.	.	.	.	.
8B-\L	.	[4e-/	.	.	.	.	.	.
8F\	.	.	.	.	.	.	.	.
8B-\J)	.	16e-/LL]	.	.	.	.	.	.
.	.	16d/JJ)	.	.	.	.	.	.
=58	=58	=58	=58	=58	=58	=58	=58	=58
*^	*	*	*	*	*	*	*	*
2.r	2.ryy	.	(8c/L	(4.c\	.	2.r	.	.	.
.	.	.	8d/	.	.	.	.	.	.
.	.	.	8f/J	.	.	.	.	.	.
.	.	.	8b-/L	4B-\)	.	.	.	.	.
.	.	.	8f/	.	.	.	.	.	.
.	.	.	8b-/J)	8r	.	.	.	.	.
!	!	!	!LO:TX:a:t=V.I.	!	!	!	!	!	!
8A-X/L	4.A-\	.	(4.cc/	8r	pp	4.c\	Gdy	Quan-	.
8c/	.	.	.	8e-\L	.	.	.	.	.
8e-/J	.	.	.	8a-X\J	.	.	.	.	.
8A-/L	4.A-\	.	4.dd/)	8r	.	4d\	mnie	-do	.
8d/	.	.	.	8f\L	.	.	.	.	.
8f/J	.	.	.	8b-\J	.	8d\	i-	fan-	.
=59	=59	=59	=59	=59	=59	=59	=59	=59	=59
8G/L	4.G\	.	[4.ee-/	8r	.	[4.e-\	-grasz-	-ciul-	.
8B-/	.	.	.	8e-\L	.	.	.	.	.
8e-/J	.	.	.	8b-\J	.	.	.	.	.
8G/L	4.E-\ 4.G	.	(4ee-/]	8r	.	4e-\]	.	.	.
8e-/	.	.	.	8g\	.	.	.	.	.
8B-/J	.	.	8b-/)	8r	.	8B-\	-ki	-lo,	.
8F/L	4.D\ 4.F	.	[4.b-/	8r	.	4.B-\	wio-	dal-	.
8B-/	.	.	.	8f\L	.	.	.	.	.
8F/J	.	.	.	8b-\J	.	.	.	.	.
8BB-/	4.ryy	.	4b-/]	8r	.	4F/	-dły	-la	.
8r	.	.	.	8B-\L 8d	.	.	.	.	.
8r	.	.	8a/	8d\J 8f	.	8A-X/	dzie-	sco-	.
*v	*v	*	*	*	*	*	*	*	*
=60	=60	=60	=60	=60	=60	=60	=60	=60
8E-\	.	(4.a/	8r	.	4.A-X/	-cię-	-glie-	.
8r	.	.	8B-\L 8d	.	.	.	.	.
8r	.	.	8d\J 8f	.	.	.	.	.
8E-\	.	8g/)	8r	.	4G/	-ce	-ra	.
8r	.	8r	8B-\L	.	.	.	.	.
8r	.	8r	8e-\J	.	8r	.	.	.
!	!	!	!	!	!	!	!	!LO:DY:a
(4E-\	.	(4cc/	8r	.	4.c\	Na	sguar-	<
.	.	.	8c\L	<	.	.	.	.
8G\)	.	8g/)	8g\J	.	.	.	.	.
(4BBn/	.	4dd/	8r	.	4d\	gro-	-di	.
.	.	.	8d\L	.	.	.	.	.
8G\)	.	8dd/	8g\J	.	8d\	-źne	cu-	[[
=61	=61	=61	=61	=61	=61	=61	=61	=61
*^	*	*	*	*	*	*	*	*
!	!	!	!	!	!	!	!	!	!LO:DY:a
8r	4.C\	.	[4.ff/	8r	[	[4.f\	czo-	-rio-	>
8e-/L	.	.	.	8g\L	.	.	.	.	.
8G/J	.	.	.	8cc\J	.	.	.	.	.
8r	4.C\	.	(8ff/L]	8r	.	8f\]	.	.	.
8c/L	.	.	8ee-/	8g\L	.	8e-\	-ła	-si	.
8G/J	.	.	8cc/J)	8e-\J	.	8c\	wy-	vol-	.
8r	4.D\	.	4b-/	8r	.	4B-\	-nio-	-ge-	]
8f\L	.	.	.	8f\L	.	.	.	.	.
8B-\J	.	.	8b-/	8B-\J	.	8B-\	-słych,	-a	.
8r	8BB-\	.	(8dd/L	8ryy	.	8d\L	stro-	da	.
8d/L	8r	.	8a-X/ 8cc	4ryy	.	8c\J	.	.	.
8B-/J	8r	.	8f/J) 8a-	.	.	8A-X/	-mych	lon-	.
*v	*v	*	*	*	*	*	*	*	*
=62	=62	=62	=62	=62	=62	=62	=62	=62
4E-\	.	4.g/	8r	.	4G/	skał,	-tan,	.
.	.	.	8B-\L	.	.	.	.	.
8G\	.	.	8e-\J	.	8r	.	.	.
(8E-/L	.	8B-/L 8g	4.ryy	<	4r	.	.	.
8BB-/	.	8G/ 8B-	.	.	.	.	.	.
!	!	!	!	!	!	!	!	!LO:DY:a
!	!	!	!	!	!	!	!	!LO:DY:a
8AA-X/J)	.	8B-/J 8e- 8g	.	.	8e-\	Do	m'af-	f <
4GG/	.	8Bn/L 8e- 8g	2.ryy	[ fp	[4.g\	miast	-fa-	[
.	.	8B/ 8e- 8g	.	.	.	.	.	.
8r	.	8B/J 8e- 8g	.	.	.	.	.	.
4.GGG/ 4.GG	.	8B/L 8e- 8g	.	.	4g\]	.	.	.
.	.	8B/ 8e- 8g	.	.	.	.	.	.
.	.	8B/J 8e- 8g	.	.	8f\	da-	-sei-	.
*	*	*v	*v	*	*	*	*	*
=63	=63	=63	=63	=63	=63	=63	=63
*^	*	*	*	*	*	*	*
4AA-X/	2.AAA-X\	.	8c/L 8f	fp	4.f\	-le-	-na-	.
.	.	.	8F/ 8c 8f	.	.	.	.	.
8r	.	.	8F/J 8c 8f	.	.	.	.	.
4.AA-^/	.	.	8F/L 8c 8f	.	8e-\	-kich	-va,	.
.	.	.	8F/ 8c 8f	.	8r	.	.	.
.	.	.	8F/J 8c 8f	.	8d\	skła-	pue-	.
4GG/	2.GGG\	.	8Bn/L 8d 8f	fp	[4.f\	-da-	-ril	.
.	.	.	8B/ 8d 8f	.	.	.	.	.
8r	.	.	8B/J 8d 8f	.	.	.	.	.
4.GG^/	.	.	8B/L 8d 8f	.	4f\]	.	.	.
.	.	.	8B/ 8d 8f	.	.	.	.	.
.	.	.	8B/J 8d 8f	.	16e-\LL	-łem	chi-	.
.	.	.	.	.	16d\JJ	.	.	.
*v	*v	*	*	*	*	*	*	*
=64	=64	=64	=64	=64	=64	=64	=64
2.AAA-X/ 2.AA-X	.	8Bn/L 8d 8f	fp	4.d\	rę-	-me-	.
.	.	8B/ 8d 8f	.	.	.	.	.
.	.	8B/J 8d 8f	.	.	.	.	.
.	.	8c/L 8f	.	4c\	-ce,	-ra,	.
.	.	8c/ 8f	.	.	.	.	.
.	.	8c/J 8f	.	8r	.	.	.
((2.AAAn/ 2.AAn	.	8c/ 8f 8cc	.	4.c\	Jak	del-	.
.	.	(8c/L	.	.	.	.	.
.	.	8e-/J	.	.	.	.	.
.	.	8f/L	.	4d\	gdy-	-le	.
.	.	8d/	.	.	.	.	.
.	.	8e-/J)	.	8e-\	-bym	cit-	.
=65	=65	=65	=65	=65	=65	=65	=65
8BBB-/)) 8BB-	.	(8e-/L 8g	.	4.e-\	do	-ta	.
8r	.	8B-/	.	.	.	.	.
8r	.	8e-/J	.	.	.	.	.
4r	.	8g/L	.	8B-\	nich	di	.
.	.	8B-/	.	8r	.	.	.
8r	.	8e-/J)	.	16d\LL	u-	splen-	.
.	.	.	.	16c\JJ	.	.	.
8BBB-/ 8BB-	.	8r	.	[4.B-\	-le-	-dor	.
8r	.	(8B-/L	.	.	.	.	.
8r	.	8d/J	.	.	.	.	.
4r	.	8b-/L	.	4B-\]	.	.	.
.	.	8d/	.	.	.	.	.
8r	.	8f/J)	.	8A-X/	-cić	ar-	.
=66	=66	=66	=66	=66	=66	=66	=66
4.EE-/ 4.E-	.	8r	.	4G/	chciał,	-can.	.
.	.	8G/L 8B-	<	.	.	.	.
.	.	8G/J 8B- 8e-	.	8r	.	.	.
8EE-/L 8E-	.	8B-/L 8e- 8g	.	4r	.	.	.
8DD/ 8D	.	8e-/ 8g	.	.	.	.	.
!	!	!	!	!	!	!	!LO:DY:a
8CC/J 8C	.	8e-/J 8g 8ee-	.	8G/	Do	M'af-	<
8BBBn/L 8BBn	.	8G/L 8d 8g	[ f	[4.g\	miast	-fa-	[
8BBB/ 8BB	.	8G/ 8d 8g	.	.	.	.	.
8BBB/ 8BB	.	8G/ 8d 8g	.	.	.	.	.
8BBB/ 8BB	.	8G/ 8d 8g	.	4g\]	.	.	.
8BBB/ 8BB	.	8G/ 8d 8g	.	.	.	.	.
8BBB/J 8BB	.	8G/J 8d 8g	.	8f#X\	da-	-sci-	.
=67	=67	=67	=67	=67	=67	=67	=67
2.CC/ 2.C	.	8G/L 8en 8g	fp	4.f#X\	-le-	-na-	.
.	.	8G/ 8e 8g	.	.	.	.	.
.	.	8G/J 8e 8g	.	.	.	.	.
.	.	8A/L 8e 8g	.	8en\	-kich	-va,	.
.	.	8A/ 8e 8g	.	8r	.	.	.
.	.	8A/J 8e 8g	.	8e\	skła-	pue-	.
2.DD/ 2.D	.	8A/L 8d 8f#X	.	4.f#\	-da-	-ri-	.
.	.	8A/ 8d 8f#	.	.	.	.	.
.	.	8A/J 8d 8f#	.	.	.	.	.
.	.	8A/L 8c 8f#	.	4e\	-łem	-le	.
.	.	8A/ 8c 8f#	.	.	.	.	.
.	.	8A/J 8c 8f#	.	8d\	me	chi-	.
=68	=68	=68	=68	=68	=68	=68	=68
((2.EEn/ 2.En	.	8G/L 8d 8g	.	4.d\	rę-	-me-	.
.	.	8G/ 8d 8g	.	.	.	.	.
.	.	8G/J 8d 8g	.	.	.	.	.
.	.	8G/L 8c#X 8g	.	4c#X\	-ce	-ra,	.
.	.	8G/ 8c# 8g	.	.	.	.	.
.	.	8G/J 8c# 8g	.	8r	.	.	.
2.EE-X/)) 2.E-X	.	(8cn/L 8g	pp	[4.cn\	jak	del-	.
.	.	8G/	.	.	.	.	.
.	.	8c/J	.	.	.	.	.
.	.	8A/L	.	8c\]	.	.	.
.	.	8c/	.	8d\	gdy-	-le	.
.	.	8f/J)	.	8e-X\	-bym	cit-	.
=69	=69	=69	=69	=69	=69	=69	=69
*	*	*^	*	*	*	*	*
4.DD/ 4.D	.	8r	8ryy	.	4.f\	do	-ta-	.
.	.	(8B-/L	8ryy	.	.	.	.	.
.	.	8f/J)	8ryy	.	.	.	.	.
4.GG-X/ 4.G-X	.	8r	8ryy	.	8B-\	nich	-di	.
.	.	(8B-/L	8ryy	.	8r	.	.	.
.	.	8e-/J)	8ryy	.	8B-\	u-	splen-	.
4.CC/ 4.C	.	4.g-X/	8r	.	[4.e-\	-le-	-dor	.
.	.	.	(8B-\L	.	.	.	.	.
.	.	.	8e-\J)	.	.	.	.	.
4.FF/ 4.F	.	(4f#X/	8r	.	4e-\]	.	.	.
.	.	.	(8A\L	.	.	.	.	.
.	.	8e-/)	8c\J)	.	16d\LL	-cić	ar-	.
.	.	.	.	.	16c\JJ	.	.	.
=70	=70	=70	=70	=70	=70	=70	=70	=70
8BB-\L 8F	.	8d/L	2.ryy	<	4B-\	chciał.	-can!	.
8BB-\ 8F	.	8B-/ 8d	.	.	.	.	.	.
8BB-\J 8B-	.	8d/J 8f	.	.	8r	.	.	.
8BB-\L 8B-	.	8d/L 8b-	.	.	4r	.	.	.
8BB-\ 8B-	.	8f/ 8dd	.	.	.	.	.	.
8BB-\J 8B-	.	8b-/J 8dd 8ff	.	.	8r	.	.	.
8BBB-/ 8BB-	.	[4.b-\ [4.ee- [4.gg-X [4.bb-	4.ryy	[ ???	4r	.	.	.
8BB-\L 8E- 8G-X 8B-	.	.	.	.	.	.	.	.
8BB-\J 8E- 8G- 8B-	.	.	.	.	8r	.	.	.
8BB-\L 8E- 8G- 8B-	.	4b-\] 4ee-] 4gg-] 4bb-]	4ryy	.	4r	.	.	.
8BB-\ 8E- 8G- 8B-	.	.	.	.	.	.	.	.
!	!	!	!	!	!	!	!	!LO:DY:a
8BB-\J 8B-	.	(16ff/LL 16aa-X	8b-\	.	8e-\	Mój	Mio	f
.	.	16ee-/JJ) 16gg-	.	.	.	.	.	.
*	*	*v	*v	*	*	*	*	*
=71	=71	=71	=71	=71	=71	=71	=71
8BB-\L 8B-	.	8b-\ 8dd 8ff	.	4.d\	Oj-	pa-	.
8B-\	.	8f/L 8b- 8dd	>	.	.	.	.
8B-\J	.	8d/J 8f 8b-	.	.	.	.	.
8B-\L	.	8d/L 8f	.	4B-\	-cze!	-dre!	.
8BB-\ 8F	.	8B-/ 8d	.	.	.	.	.
8BB-\J	.	8B-/J	.	8r	.	.	.
8BBB-/ 8BB-	.	[4.B-/ [4.g-X [4.b-	] pp	4r	.	.	.
8BB-/L	.	.	.	.	.	.	.
8BB-/J	.	.	.	8r	.	.	.
8BB-/L	.	4B-/] 4g-] 4b-]	.	4r	.	.	.
8BB-/	.	.	.	.	.	.	.
8BB-/J	.	(16f/LL 16a-X	.	8B-\ 8g-X	mój	mio	.
.	.	16e-/JJ) 16g-	.	.	.	.	.
=72	=72	=72	=72	=72	=72	=72	=72
8r	.	8B-/ 8d 8f	.	[4.f\	Oj-	pa-	.
8BBB-/L 8BB-	.	8B-/L 8d 8f	.	.	.	.	.
8BBB-/J 8BB-	.	8B-/J 8d 8f	.	.	.	.	.
4BBB-/ 4BB-	.	4B-/ 4d 4f	.	8f\]	.	.	.
.	.	.	.	8e-\	-cze,	-dre!	.
8r	.	8r	.	8d\	cios	fui	.
8r	.	8r	.	[4.f\	to-	stol-	.
8GGG#X/L 8GG#X	.	8Bn/L 8d 8f	.	.	.	.	.
8GGG#/J 8GG#	.	8B/J 8d 8f	.	.	.	.	.
4GGG#/ 4GG#	.	4B/ 4d 4f	.	8f\]	.	to	.
.	.	.	.	8e-\	-bie	ed	.
8r	.	8r	.	8d\	za-	in-	.
=73	=73	=73	=73	=73	=73	=73	=73
8r	.	8r	.	[4.f\	-da-	-gra-	.
8AAA/L 8AA	.	8c/L 8e- 8f	.	.	.	.	.
8AAA/J 8AA	.	8c/J 8e- 8f	.	.	.	.	.
4AAA/ 4AA	.	4c/ 4e- 4f	.	8f\]	.	.	.
.	.	.	.	8c\	-łem	-to,	.
8r	.	8r	.	8c\	Rzu-	quand'	.
2.FF/ 2.F	.	8r	.	4e-X\	-ca-	io	.
.	.	(8A/L 8f	<	.	.	.	.
.	.	8B-/J 8c 8f	.	8e-\	-jąc	ti	.
.	.	8c/L 8f 8a	.	8e-\	nę-	vol-	.
.	.	8d/ 8f 8b-	.	8d\	-dzny	-li	.
.	.	8e-/J) 8a 8cc	[[	8c\	twój	la-	.
=74	=74	=74	=74	=74	=74	=74	=74
*	*	*^	*	*	*	*	*
(4.BB-\ 4.B-	.	8dd/L	2.ryy	.	[4.d\	próg	-sciar	.
.	.	8d/	.	.	.	.	.	.
.	.	8dd/J	.	.	.	.	.	.
4AA\ 4A	.	8cc/L 8dd	.	.	8d\]	.	.	.
.	.	8d/	.	.	8r	.	.	.
8GG/) 8G	.	8b-/J 8dd	.	.	8r	.	.	.
[4.FF#X^/ [4.F#X	.	(8a/L	4.c\ 4.e-	.	4.e-\	Lecz	Ma	.
.	.	8A/	.	.	.	.	.	.
.	.	8a/J)	.	.	.	.	.	.
8FF#/] 8F#]	.	(8c/L 8d	4.ryy	.	4d\	syn	del	.
8r	.	8A/ 8d	.	.	.	.	.	.
8r	.	8d/J) 8a	.	.	8c\	twój	ri-	.
*	*	*v	*v	*	*	*	*	*
=75	=75	=75	=75	=75	=75	=75	=75
8GG/ 8G	.	(8c/L 8d	.	4.c\	wró-	-tor-	.
8r	.	8A/ 8f#X	.	.	.	.	.
8r	.	8c/J) 8a	.	.	.	.	.
8G\	.	8r	.	4B-\	-ci	-no	.
8r	.	(8B-/L 8g	.	.	.	.	.
8r	.	8d/J)	.	8r	.	.	.
8GG/ 8G	.	8r	.	4.f\	zrze-	e il	.
8r	.	(8d/L 8b-	.	.	.	.	.
8r	.	8fn/J) 8dd	.	.	.	.	.
8GG/ 8G	.	8r	.	[4en\	-knie	di	.
8r	.	(8B-/L 8g	.	.	.	.	.
8r	.	8d/J) 8b-	.	16e\]	.	.	.
.	.	.	.	16d\	się	spun-	.
=76	=76	=76	=76	=76	=76	=76	=76
*	*	*^	*	*	*	*	*
8AA\ 8A	.	8r	2.ryy	.	4.d\	sła-	-ta-	.
8r	.	(8A/L 8en	.	.	.	.	.	.
8r	.	8e/J) 8a	.	.	.	.	.	.
8AA\ 8A	.	8e\L 8a 8cc#X	.	.	4c#X\	-wy	-to.	.
8r	.	8a\ 8cc# 8een	.	.	.	.	.	.
8r	.	8ee\J 8gg	.	.	8r	.	.	.
4.AAA/ 4.AA	.	(8e/L 8a	4.c#X\	.	4.g^\	Dla	Il	.
.	.	8c#/	.	.	.	.	.	.
.	.	8e/J)	.	.	.	.	.	.
8AA\L 8A	.	(8e-X/L 8g	4.ryy	.	4g^\	prze-	tuo	.
8r	.	8cn/	.	.	.	.	.	.
8AA\J 8A	.	8e-/J) 8g	.	.	8g^\	-ba-	per-	.
=77	=77	=77	=77	=77	=77	=77	=77	=77
[4.BB-\ [4.B-	.	(8d/L 8g	2.ryy	.	4.g\	-cze-	-do-	.
.	.	8f/	.	.	.	.	.	.
.	.	8b-/J)	.	.	.	.	.	.
4BB-\] 4B-]	.	8b-/L 8dd 8ff	.	.	8f\	-nia	-no	.
.	.	8f/ 8b- 8dd	.	.	8r	.	.	.
8r	.	8d/J 8f 8b-	.	.	8B-\	u	deb-	.
(8qFF/	.	.	.	.	.	.	.	.
!	!	!	!	!LO:DY:a	!	!	!	!
2.F\)	.	8r	(4.B-\	<	[4.d\	two-	-bo im-	.
.	.	(8en/L	.	.	.	.	.	.
.	.	8f/J	.	.	.	.	.	.
!	!	!	!	!LO:DY:a	!	!	!	!
.	.	8g-X/L	4.A\)	[ >	4d\]	.	.	.
.	.	8f/	.	.	.	.	.	.
.	.	8e-X/J)	.	.	8c\	-ich	-plo-	.
*	*	*v	*v	*	*	*	*	*
=78||	=78||	=78||	=78||	=78||	=78||	=78||	=78||
!	!	!	!	!LO:TX:a:t=Piu mosso.	!	!	!
8FF'/L 8F	.	8G#X'/L 8Bn 8d	] p	4Bn\	nóg!	-rar!	.
8FF'/ 8F	.	8A'/ 8c	.	.	.	.	.
8FF'/J 8F	.	8A#X'/J 8c#X	.	8r	.	.	.
8FF'/L 8F	.	8B'/L 8d	.	4r	.	.	.
8FF'/ 8F	.	8cn'/ 8e-	.	.	.	.	.
8FF'/J 8F	.	8c#X'/J 8en	.	8r	.	.	.
8FF'/L 8F	.	8d/L 8f	.	[4.d\	Zrze-	Spun-	.
8FF#X'/ 8F#X	.	8f/ 8dd	.	.	.	.	.
8GG'/J 8G	.	8d/J 8f	.	.	.	.	.
8GG#X'\L 8G#X	.	8d/L 8f	.	4d\_	.	.	.
8AA'\ 8A	.	8d/ 8f	.	.	.	.	.
8BB-'\J 8B-	.	8d/J 8f	.	16d\]	.	.	.
.	.	.	.	16Bn\	-kam	-ta il	.
=79	=79	=79	=79	=79	=79	=79	=79
8BBn'\L 8Bn	.	8d'/L 8f	.	4Bn\	się	di,	.
8BB'\ 8B	.	8d#X'/ 8f#X	.	.	.	.	.
8BB'\J 8B	.	8en'/J 8g	.	8r	.	.	.
8BB'\L 8B	.	8e#X'/L 8g#X	.	4B^\	tak	si,	.
8BB'\ 8B	.	8f#'/ 8a	.	.	.	.	.
8BB'\J 8B	.	8g#'/J 8b-	.	8r	.	.	.
8BB'\L 8B	.	8g#X'/L 8bn	.	[4B\	zrze-	spun-	.
8C'\ 8c	.	8g#'/ 8b	.	.	.	.	.
8C#X'\J 8c#X	.	8g#'/J 8b	.	16B\]	.	.	.
.	.	.	.	16B\	-kam	-ta	.
8D'\L 8d	.	8g#'/L 8b	.	[4d\	się	del	.
8E-'\ 8e-	.	8g#'/ 8b	.	.	.	.	.
8En'\J 8en	.	8g#'/J 8b	.	16d\]	.	.	.
.	.	.	.	16d\	mej	ri-	.
=80	=80	=80	=80	=80	=80	=80	=80
8F'\L 8f	.	8g#X/L 8bn	.	2.f\	sła-	-tor-	.
8F'\ 8f	.	8a/ 8cc	.	.	.	.	.
8F'\J 8f	.	8a#X/J 8cc#X	.	.	.	.	.
8F'\L 8f	.	8b\L 8dd	.	.	.	.	.
8F'\ 8f	.	8ccn\ 8ee-	.	.	.	.	.
8F'\J 8f	.	8cc#X\J 8een	.	.	.	.	.
8F'\L 8f	.	8dd\L 8ff	<	4d\	-wy	-no!	.
8F#X'\ 8f#X	.	8ff\ 8ddd	.	.	.	.	.
8G'\J 8g	.	8dd\J 8ff	.	8r	.	.	.
*clefG2	*	*	*	*	*	*	*
8A-X'/L 8a-X	.	8dd\L 8ff	.	4r	.	.	.
8An'/ 8an	.	8dd\ 8ff	.	.	.	.	.
8B-'/J 8b-	.	8dd\J 8ff	.	8r	.	.	.
=81	=81	=81	=81	=81	=81	=81	=81
8Bn'/L 8bn	.	8dd'\L 8ff	.	1.r	.	.	.
8B'/ 8b	.	8dd#X'\ 8ff#X	.	.	.	.	.
8B'/J 8b	.	8een'\J 8gg	.	.	.	.	.
8B'/L 8b	.	8ee#X'\L 8gg#X	.	.	.	.	.
8B'/ 8b	.	8ff#'\ 8aa	.	.	.	.	.
8B'/J 8b	.	8ggn'\J 8bb-X	.	.	.	.	.
8B'/L 8b	.	8aa-X'\L 8bbn	.	.	.	.	.
8c'/	.	8cc'\ 8aa- 8bb	.	.	.	.	.
8c#X'/J	.	8cc#X'\J 8aa- 8bb	.	.	.	.	.
8d'/L	.	8ddn'\L 8aa- 8bb	.	.	.	.	.
8e-X'/	.	8cc-X'\ 8aa- 8bb	.	.	.	.	.
8en'/J	.	8ccn'\J 8aa- 8bb	[[	.	.	.	.
=82	=82	=82	=82	=82	=82	=82	=82
*M4/4	*	*M4/4	*	*M4/4	*	*	*
*met(c)	*	*met(c)	*	*met(c)	*	*	*
8f/	.	8dd\ 8aa-X 8bbn	.	8r	.	.	.
16r	.	16r	.	8f\	Jam	Son	.
*clefF4	*	*	*	*	*	*	*
16E-X\ 16e-X	.	16cc\ 16ff 16aa- 16ccc	ff	.	.	.	.
8D\ 8d	.	8bn\L 8ff 8aa- 8bb	.	[2a-X;\	Pa-	Pa-	.
16r	.	16r	.	.	.	.	.
16EE-/ 16E-	.	16cc\Jk 16ff 16aa- 16ccc	.	.	.	.	.
8DD/ 8D	.	8b\ 8ff 8aa- 8bb	.	.	.	.	.
8r	.	8r	.	.	.	.	.
4r;	.	4r;	.	8a-\]	.	.	.
.	.	.	.	8A-X/	-rja!	-ria!	.
=83	=83	=83	=83	=83	=83	=83	=83
!	!	!	!	!LO:TX:a:t=Piu lento.	!	!	!
12EE-/ 12E-	.	12cc\ 12gg 12ccc	sf	16.G/	twe-	Gia	.
12r	.	12r	.	.	.	.	.
.	.	.	.	32G/	-go	m'af'fret-	.
.	.	.	.	16An/	prze-	-to	.
12r	.	12r	.	.	.	.	.
.	.	.	.	16Bn\	-ba-	pa-	.
6r	.	12r	.	16c\	-cze-	-dre	.
.	.	.	.	16d\	-nia	il	.
.	.	12r	.	.	.	.	.
.	.	.	.	16e-\	bie-	tuo	.
12r	.	12r	.	.	.	.	.
.	.	.	.	16f\	-gnę	per-	.
!	!	!	!	!LO:TX:a:t=rall.	!	!	!
12.r	.	12r	.	[4an;\	bła-	-don	.
.	.	12A/L 12c 12e-	ff	.	.	.	.
24FF/ 24C 24F	.	.	.	.	.	.	.
12FF/ 12C 12F	.	12A/J 12c 12e-	.	.	.	.	.
8r;	.	8r;	.	16a\]	.	.	.
.	.	.	.	16f\	-gać	ad	.
8r	.	8r	.	16e-;\	u	im-	.
.	.	.	.	16c\	twych	-plo-	.
=84	=84	=84	=84	=84	=84	=84	=84
*M12/8	*	*M12/8	*	*M12/8	*	*	*
!	!	!	!	!LO:TX:a:t=Vivace.	!	!	!
8BB-'\L 8F	.	8B-'/L 8d	f	4.B-\	nóg!	-rar!	.
8BB-'\ 8F	.	8c'/ 8e-	.	.	.	.	.
8BB-'\J 8F	.	8c#X'/J 8en	.	.	.	.	.
8BB-'\L 8B-	.	8d'/L 8f	.	4.r	.	.	.
8BB-'\ 8B-	.	8e-X'/ 8g-X	.	.	.	.	.
8BB-'\J 8B-	.	8en'/J 8gn	.	.	.	.	.
8BB-'\L 8B-	.	8f'/L 8a-X	.	2.r	.	.	.
8BB-'\ 8B-	.	8f#X'/ 8an	.	.	.	.	.
8BB-'\J 8B-	.	8g'/J 8b-	.	.	.	.	.
8BB-'\L 8B-	.	8g#X'/L 8bn	.	.	.	.	.
8BB-'\ 8B-	.	8a'/ 8cc	.	.	.	.	.
8BB-'\J 8B-	.	8a'/J 8cc#X	.	.	.	.	.
=85	=85	=85	=85	=85	=85	=85	=85
8BB-'\L 8B-	.	8b-'\L 8dd	.	1.ryy	.	.	.
8BB-'\ 8B-	.	8cc'\ 8ee-	.	.	.	.	.
8BB-'\J 8B-	.	8cc#X'\J 8een	.	.	.	.	.
8BB-'\L 8B-	.	8dd'\L 8ff	.	.	.	.	.
8BB-'\ 8B-	.	8ee-X'\ 8gg-X	.	.	.	.	.
8BB-'\J 8B-	.	8een'\J 8ggn	.	.	.	.	.
8BB-'\L 8B-	.	8ff'\L 8aa-X	.	.	.	.	.
8BB-'\ 8B-	.	8ff#X'\ 8aan	.	.	.	.	.
8BB-'\J 8B-	.	8gg'\J 8bb-	.	.	.	.	.
8BB-'\L 8B-	.	8gg#X'\L 8bbn	.	.	.	.	.
8BB-'\ 8B-	.	8aa'\ 8ccc	.	.	.	.	.
8BB-'\J 8B-	.	8aa'\J 8ccc#X	.	.	.	.	.
=86	=86	=86	=86	=86	=86	=86	=86
*	*	*^	*	*	*	*	*
8BB-'\L 8B-	.	8bb-'\L 8ddd	4.ryy	.	1.ryy	.	.	.
8BB-'\ 8B-	.	8ccc'\ 8eee-	.	.	.	.	.	.
8BB-'\J 8B-	.	8ccc#X'\J 8eeen	.	.	.	.	.	.
[4.BB-\ [4.D [4.F [4.B-	.	4.fff/	8ddd\L	.	.	.	.	.
.	.	.	8bb-\	.	.	.	.	.
.	.	.	8ff\J	.	.	.	.	.
8BB-\] 8D] 8F] 8B-]	.	8dd\L	8ryy	.	.	.	.	.
8r	.	8ee-\ 8eee-X	8ryy	.	.	.	.	.
8r	.	8dd\J 8ddd	8ryy	.	.	.	.	.
[4BB-^\ [4D [4F [4B-	.	8dd\L 8ddd	4.ryy	.	.	.	.	.
.	.	8cc\ 8cccn	.	.	.	.	.	.
16BB-\LL] 16D] 16F] 16B-]	.	8b-\J 8bb-	.	.	.	.	.	.
16BB-\JJ 16D 16F 16B-	.	.	.	.	.	.	.	.
*	*	*v	*v	*	*	*	*	*
=87	=87	=87	=87	=87	=87	=87	=87
8BB-^\ 8D 8F 8B-	.	8b-\L 8bb-	.	1.ryy	.	.	.
8r	.	8a\ 8aa	.	.	.	.	.
8r	.	8g\J 8gg	.	.	.	.	.
8r	.	8f\L 8ff	.	.	.	.	.
8e-\L	.	8ee-\	.	.	.	.	.
8d\J	.	8dd\J	.	.	.	.	.
8c\L	.	8cc\L	.	.	.	.	.
8B-\	.	8b-\	.	.	.	.	.
8A\J	.	8a\J	.	.	.	.	.
8G\L	.	8g/L	.	.	.	.	.
8F\	.	8f/	.	.	.	.	.
8E-\J	.	8e-/J	.	.	.	.	.
=88	=88	=88	=88	=88	=88	=88	=88
8D\L	.	8d/L	.	1.ryy	.	.	.
8F\	.	8f/	.	.	.	.	.
8B-\J	.	8b-/J	.	.	.	.	.
8d\L	.	8dd\L	.	.	.	.	.
8f\	.	8ff\	.	.	.	.	.
8B-\J	.	8bb-\J	.	.	.	.	.
8d\	.	8ddd\	.	.	.	.	.
8.r	.	8.r	.	.	.	.	.
16D\ 16F 16A-X 16Bn	.	16ff\ 16fff	.	.	.	.	.
8D\ 8F 8A- 8B	.	8aa-X\ 8aaa-X	.	.	.	.	.
!	!	!LO:TX:a:t=(Zasłona)\n(Cala la tela)	!	!	!	!	!
8.r	.	8.r	.	.	.	.	.
16E-\ 16G 16c	.	16gg\ 16ccc 16ggg	.	.	.	.	.
=89	=89	=89	=89	=89	=89	=89	=89
8E-\ 8G 8c	.	8gg\ 8ccc 8ggg	.	1.ryy	.	.	.
8.r	.	8.r	.	.	.	.	.
16BBn\ 16Bn	.	16ff\ 16aa-X 16ddd	.	.	.	.	.
8BB\ 8B	.	8ff\ 8aa- 8ddd	.	.	.	.	.
8.r	.	8.r	.	.	.	.	.
16C\ 16c	.	16ee-\ 16gg 16eee-	.	.	.	.	.
8C\ 8c	.	8ee-\ 8gg 8eee-	.	.	.	.	.
8.r	.	8.r	.	.	.	.	.
16FF#X/ 16F#X	.	16cc\ 16ee- 16aan	.	.	.	.	.
8FF#/ 8F#	.	8cc\ 8ee- 8aa	.	.	.	.	.
8.r	.	8.r	.	.	.	.	.
16GG/ 16G	.	16b-\ 16dd 16bb-	.	.	.	.	.
=90	=90	=90	=90	=90	=90	=90	=90
8GG/ 8G	.	8b-\ 8dd 8bb-	.	1.ryy	.	.	.
8.r	.	8.r	.	.	.	.	.
16DD/ 16D	.	16a\ 16cc 16ff#X	.	.	.	.	.
8DD/ 8D	.	8a\ 8cc 8ff#	.	.	.	.	.
8.r	.	8.r	.	.	.	.	.
16EE-/ 16E-	.	16a\ 16cc 16ff# 16aa	.	.	.	.	.
8EE-/ 8E-	.	8a\ 8cc 8ff# 8aa	.	.	.	.	.
8.r	.	8.r	.	.	.	.	.
16EEn/ 16En	.	16g\ 16b- 16cc#X 16gg	.	.	.	.	.
8EE/ 8E	.	8g\ 8b- 8cc# 8gg	.	.	.	.	.
8.r	.	8.r	.	.	.	.	.
16FF/ 16F	.	16f\ 16b- 16dd 16ffn	.	.	.	.	.
=91	=91	=91	=91	=91	=91	=91	=91
8FF/ 8F	.	8f\L 8b- 8dd 8ff	.	1.ryy	.	.	.
8F\L 8B- 8d	.	8g\ 8gg	.	.	.	.	.
8F\J 8B- 8d	.	8a\J 8aa	.	.	.	.	.
8F\L 8B- 8d	.	8b-\L 8bb-	.	.	.	.	.
8F\ 8B- 8d	.	8cc\ 8ccc	.	.	.	.	.
8F\J 8B- 8d	.	8dd\J 8ddd	.	.	.	.	.
8G-X\ 8B- 8e-	.	8ee-\ 8eee-	.	.	.	.	.
8r	.	8r	.	.	.	.	.
8r	.	8r	.	.	.	.	.
8FF/ 8F	.	8cc\ 8ee- 8ff 8aa	.	.	.	.	.
8r	.	8r	.	.	.	.	.
8r	.	8r	.	.	.	.	.
=92	=92	=92	=92	=92	=92	=92	=92
8BB-\L 8D 8F	.	[4.b-\ [4.dd [4.ff [4.bb-	.	1.ryy	.	.	.
8BB-\ 8D 8F	.	.	.	.	.	.	.
8BB-\J 8D 8F	.	.	.	.	.	.	.
[4.BB-\ [4.D [4.F	.	8b-\L] 8dd] 8ff] 8bb-]	.	.	.	.	.
.	.	8ff\	.	.	.	.	.
.	.	8dd\J	.	.	.	.	.
8BB-\L] 8D] 8F]	.	8b-/L	.	.	.	.	.
8F\	.	8f/	.	.	.	.	.
8D\J	.	8d/J	.	.	.	.	.
8BB-/L	.	[4B-/	.	.	.	.	.
8FF/ 8F	.	.	.	.	.	.	.
8DD/J 8D	.	16B-/LL]	.	.	.	.	.
.	.	16B-/JJ	.	.	.	.	.
=93	=93	=93	=93	=93	=93	=93	=93
4BBB-/ 4BB-	.	4B-/	.	1.ryy	.	.	.
8r	.	8r	.	.	.	.	.
4.EE-^\ 4.E-	.	4.G-X^/ 4.B-	.	.	.	.	.
4.DD^\ 4.D	.	4.F^/ 4.A-X 4.B-	.	.	.	.	.
4.EE-^\ 4.E-	.	4.G-^/ 4.B-	.	.	.	.	.
=94	=94	=94	=94	=94	=94	=94	=94
8BBB-/ 8BB-	.	8b-\ 8dd 8ff 8bb-	???	1.ryy	.	.	.
8r	.	8r	.	.	.	.	.
8r	.	8r	.	.	.	.	.
4r	.	4r	.	.	.	.	.
8r	.	8r	.	.	.	.	.
2.r	.	2.r	.	.	.	.	.
==	==	==	==	==	==	==	==
*-	*-	*-	*-	*-	*-	*-	*-
!!!system-decoration: s1[(s2,s3)]
!!!ENC: Berenika Jozajtis
!!!END: 2022-08-26
!!!YEC: Copyright 2022 Narodowy Instytut Fryderyka Chopina (https://polishscores.org)
!!!YEM: License CC-BY-4.0 (https://creativecommons.org/licenses/by/4.0)
